dist/assets/images/icons/heart.svg

<svg width="30" height="30" viewBox="0 0 30 30" fill="none" xmlns="http://www.w3.org/2000/svg">
<path d="M15 27.0625C14.6125 27.0625 14.2375 27.0125 13.925 26.9C9.15 25.2625 1.5625 19.45 1.5625 10.8625C1.5625 6.4875 5.1 2.9375 9.45 2.9375C11.5625 2.9375 13.5375 3.7625 15 5.2375C16.4625 3.7625 18.4375 2.9375 20.55 2.9375C24.9 2.9375 28.4375 6.5 28.4375 10.8625C28.4375 19.4625 20.85 25.2625 16.075 26.9C15.7625 27.0125 15.3875 27.0625 15 27.0625ZM9.45 4.8125C6.1375 4.8125 3.4375 7.525 3.4375 10.8625C3.4375 19.4 11.65 24.15 14.5375 25.1375C14.7625 25.2125 15.25 25.2125 15.475 25.1375C18.35 24.15 26.575 19.4125 26.575 10.8625C26.575 7.525 23.875 4.8125 20.5625 4.8125C18.6625 4.8125 16.9 5.7 15.7625 7.2375C15.4125 7.7125 14.6125 7.7125 14.2625 7.2375C13.1 5.6875 11.35 4.8125 9.45 4.8125Z" fill="#101112"/>
</svg>

<svg width="30" height="30" fill="none" xmlns="http://www.w3.org/2000/svg"><path d="M15 27.063c-.387 0-.762-.05-1.075-.163C9.15 25.263 1.562 19.45 1.562 10.863c0-4.375 3.538-7.925 7.888-7.925 2.113 0 4.088.825 5.55 2.3a7.768 7.768 0 015.55-2.3c4.35 0 7.887 3.562 7.887 7.925 0 8.6-7.587 14.4-12.362 16.037a3.236 3.236 0 01-1.075.163zM9.45 4.813c-3.312 0-6.012 2.712-6.012 6.05 0 8.537 8.212 13.287 11.1 14.274.224.075.712.075.937 0 2.875-.987 11.1-5.724 11.1-14.274 0-3.338-2.7-6.05-6.012-6.05a5.94 5.94 0 00-4.8 2.425c-.35.474-1.15.474-1.5 0C13.1 5.688 11.35 4.811 9.45 4.811z" fill="#101112"/></svg>
